X: 11081
T: Duck River
R: reel
M: 4/4
K: Dmajor
A,2D2 DFED|FA2B A3c|B2Ac B2A2|F2E2 DB,B,D|
A,2D2 DFED|FA2B A2AB|d2AB dBAG|FDEC D4:|
{fg}a4 a2ag|fd2e d2B2|{ga}b4 b2ba|ged2 e4|
{fg}a4 a2ag|fd2e d2AB|d2AB dBAG|FDEC D4:|

